src/images/stack-python.svg

<svg xmlns="http://www.w3.org/2000/svg" width="179" height="179" fill="none" viewBox="0 0 179 179"><g clip-path="url(#clip0)"><rect width="179" height="179" fill="#fff"/><path fill="#F7A501" fill-rule="evenodd" d="M122.87 59.33C122.87 59.33 126 86.66 111 87.72C96.0001 88.78 73.5701 90 73.5701 90C73.5701 90 61.7501 91.6 61.4001 107.81C61.0501 124.02 60.16 133.58 63.16 137.37C66.51 141.6 67.8901 145.37 85.5001 145.52C103.11 145.67 111.9 143.77 118.25 135.61C120.72 132.44 117.92 119.82 117.92 119.82L89.92 119.4L90.2601 115.53C90.2601 115.53 127.77 115.89 137.46 113.6C144.69 111.89 148.73 98.7501 148.37 84.7101C147.7 56.69 122.87 59.33 122.87 59.33ZM106.16 125.93C107.518 125.93 108.82 126.469 109.78 127.43C110.741 128.39 111.28 129.692 111.28 131.05C111.28 132.408 110.741 133.71 109.78 134.67C108.82 135.631 107.518 136.17 106.16 136.17C104.802 136.17 103.5 135.631 102.54 134.67C101.579 133.71 101.04 132.408 101.04 131.05C101.04 129.692 101.579 128.39 102.54 127.43C103.5 126.469 104.802 125.93 106.16 125.93Z" clip-rule="evenodd"/><path fill="#769FD1" fill-rule="evenodd" d="M55.67 114C55.67 114 52.91 86.6301 67.9 85.7801C82.89 84.9301 105.38 84.0001 105.38 84.0001C105.38 84.0001 117.23 82.5601 117.8 66.3601C118.37 50.1601 119.39 40.6101 116.44 36.7801C113.16 32.5101 111.83 28.7801 94.22 28.3301C76.61 27.8801 67.79 29.7101 61.33 37.7901C58.82 40.9201 61.45 53.5801 61.45 53.5801L89.45 54.3801L89.06 58.2401C89.06 58.2401 51.56 57.3701 41.84 59.5301C34.58 61.1401 30.37 74.2201 30.53 88.2601C30.81 116.31 55.67 114 55.67 114ZM73.29 47.6401C71.9321 47.6215 70.6372 47.0643 69.6901 46.091C68.7431 45.1176 68.2214 43.808 68.24 42.4501C68.2586 41.0922 68.8158 39.7973 69.7891 38.8502C70.7624 37.9031 72.0721 37.3815 73.43 37.4001C74.1024 37.4093 74.7664 37.5508 75.384 37.8166C76.0017 38.0824 76.561 38.4672 77.0299 38.9492C77.4989 39.4311 77.8683 40.0007 78.1171 40.6254C78.3659 41.2501 78.4892 41.9177 78.48 42.5901C78.4708 43.2624 78.3293 43.9264 78.0635 44.5441C77.7977 45.1618 77.4129 45.721 76.9309 46.19C76.449 46.6589 75.8794 47.0283 75.2546 47.2771C74.6299 47.5259 73.9624 47.6493 73.29 47.6401Z" clip-rule="evenodd"/></g><defs><clipPath id="clip0"><rect width="179" height="179" fill="#fff"/></clipPath></defs></svg>

<svg fill="none" viewBox="0 0 179 179"><g clip-path="url(#clip0)"><path fill="#fff" d="M0 0h179v179H0z"/><path fill="#F7A501" fill-rule="evenodd" d="M122.87 59.33S126 86.66 111 87.72C96 88.78 73.57 90 73.57 90s-11.82 1.6-12.17 17.81c-.35 16.21-1.24 25.77 1.76 29.56 3.35 4.23 4.73 8 22.34 8.15 17.61.15 26.4-1.75 32.75-9.91 2.47-3.17-.33-15.79-.33-15.79l-28-.42.34-3.87s37.51.36 47.2-1.93c7.23-1.71 11.27-14.85 10.91-28.89-.67-28.02-25.5-25.38-25.5-25.38zm-16.71 66.6c1.358 0 2.66.539 3.62 1.5a5.116 5.116 0 010 7.24 5.116 5.116 0 01-7.24 0 5.116 5.116 0 010-7.24 5.116 5.116 0 013.62-1.5z" clip-rule="evenodd"/><path fill="#769FD1" fill-rule="evenodd" d="M55.67 114S52.91 86.63 67.9 85.78c14.99-.85 37.48-1.78 37.48-1.78s11.85-1.44 12.42-17.64c.57-16.2 1.59-25.75-1.36-29.58-3.28-4.27-4.61-8-22.22-8.45-17.61-.45-26.43 1.38-32.89 9.46-2.51 3.13.12 15.79.12 15.79l28 .8-.39 3.86s-37.5-.87-47.22 1.29c-7.26 1.61-11.47 14.69-11.31 28.73.28 28.05 25.14 25.74 25.14 25.74zm17.62-66.36a5.12 5.12 0 11.14-10.24 5.12 5.12 0 01-.14 10.24z" clip-rule="evenodd"/></g><defs><clipPath id="clip0"><path fill="#fff" d="M0 0h179v179H0z"/></clipPath></defs></svg>
